dist/icons/svgs/location-check-solid.svg

<svg xmlns="http://www.w3.org/2000/svg" width="24" height="24" fill="currentcolor" class="icon-location-check-solid" viewBox="0 0 24 24">
  <path d="M13.3984 21.5312C12.9297 22.1172 12.0312 22.1172 11.5625 21.5312C9.57031 18.9922 5 12.9375 5 9.5C5 5.35938 8.35938 2 12.5 2C16.6406 2 20 5.35938 20 9.5C20 12.9375 15.4297 18.9922 13.3984 21.5312ZM16.9141 7.66406H16.875C17.2656 7.3125 17.2656 6.72656 16.875 6.33594C16.5234 5.98438 15.9375 5.98438 15.5859 6.33594L11.2109 10.7109L9.375 8.875C9.02344 8.48438 8.4375 8.48438 8.08594 8.875C7.69531 9.22656 7.69531 9.8125 8.08594 10.1641L10.5859 12.6641C10.9375 13.0547 11.5234 13.0547 11.9141 12.6641L16.9141 7.66406Z"/>
</svg>

<svg xmlns="http://www.w3.org/2000/svg" width="24" height="24" fill="currentColor" class="icon-location-check-solid" viewBox="0 0 24 24">
  <path d="M13.398 21.531a1.178 1.178 0 0 1-1.835 0C9.57 18.992 5 12.938 5 9.5 5 5.36 8.36 2 12.5 2S20 5.36 20 9.5c0 3.438-4.57 9.492-6.602 12.031m3.516-13.867h-.039c.39-.351.39-.937 0-1.328a.92.92 0 0 0-1.29 0l-4.374 4.375-1.836-1.836a.855.855 0 0 0-1.29 0 .856.856 0 0 0 0 1.29l2.5 2.5c.352.39.938.39 1.33 0z"/>
</svg>
